X:215
T:The Dis(s)appointed Rakes
O:No 215 Page 105 William Clarke of Feltwell
M:2/4
L:1/8
N:In M.s. the A music is only 7 bars. 2nd bar is |ef2de2c|, used to make A2 and A3 below.
K:C
G|Gcce|ef2d|e2c2|c/B/A/B/ GG|Gcce|eg2d|cc c/B/A/G/|c2c:|]E/F/|GEAF|Gcec|Adfd|c2B E/F/|GEAF|Gcec|BB A/G/A/B/|(Ggg)"D.C."|]

